svg/stop.svg

<svg width="24" height="24" viewBox="0 0 24 24" fill="none" xmlns="http://www.w3.org/2000/svg">
<path d="M5 7C5 5.89543 5.89543 5 7 5H17C18.1046 5 19 5.89543 19 7V17C19 18.1046 18.1046 19 17 19H7C5.89543 19 5 18.1046 5 17V7ZM17 7L7 7V17H17V7Z" fill="#0D0D0D"/>
</svg>

<svg width="24" height="24" fill="none" xmlns="http://www.w3.org/2000/svg"><path d="M5 7a2 2 0 012-2h10a2 2 0 012 2v10a2 2 0 01-2 2H7a2 2 0 01-2-2V7zm12 0H7v10h10V7z" fill="#0D0D0D"/></svg>
